/* XPM */
static char *result[] = {
/* columns rows colors chars-per-pixel */
"40 40 211 2 ",
"   c #0E272F",
".  c #0D2B2E",
"X  c #11272F",
"o  c #11292D",
"O  c #0D322E",
"+  c #0A352F",
"@  c #17372C",
"#  c #153A2C",
"$  c #0F2D31",
"%  c #162F32",
"&  c #0D3433",
"*  c #0B3A34",
"=  c #0C3538",
"-  c #0F3C3B",
";  c #133435",
":  c #1C3136",
">  c #133B36",
",  c #193E36",
"<  c #13363A",
"1  c #133B3B",
"2  c #1B3C3C",
"3  c #26363E",
"4  c #164433",
"5  c #1B4335",
"6  c #15413D",
"7  c #1A423D",
"8  c #1A493C",
"9  c #2D4F27",
"0  c #284629",
"q  c #2B4B2B",
"w  c #314F27",
"e  c #325325",
"r  c #365A24",
"t  c #34552D",
"y  c #3A5B2E",
"u  c #214533",
"i  c #244A35",
"p  c #294F35",
"a  c #29483A",
"s  c #354E34",
"d  c #295237",
"f  c #2B543E",
"g  c #2D593C",
"h  c #355436",
"j  c #355B37",
"k  c #3B5D35",
"l  c #345C3C",
"z  c #3A5A3B",
"x  c #3E6429",
"c  c #3E6435",
"v  c #3D653A",
"b  c #3B6A3E",
"n  c #43662B",
"m  c #436632",
"M  c #456B3A",
"N  c #466B3C",
"B  c #4A6E3B",
"V  c #4D7436",
"C  c #477139",
"Z  c #4B723A",
"A  c #557A36",
"S  c #557C3C",
"D  c #133F41",
"F  c #243741",
"G  c #164342",
"H  c #1A4443",
"J  c #174B46",
"K  c #1C4A45",
"L  c #1D4C4A",
"P  c #1F5244",
"I  c #1E514A",
"U  c #1B5E52",
"Y  c #214543",
"T  c #244C41",
"R  c #2D434B",
"E  c #214D4B",
"W  c #34424C",
"Q  c #255544",
"!  c #2A5546",
"~  c #2D5B44",
"^  c #23534B",
"/  c #2A564A",
"(  c #255A4C",
")  c #2C5C4E",
"_  c #325C41",
"`  c #365A49",
"'  c #3C4C56",
"]  c #225551",
"[  c #245B54",
"{  c #295A54",
"}  c #2A5A58",
"|  c #375756",
" . c #3A5F58",
".. c #1F6E5D",
"X. c #25604A",
"o. c #2D624C",
"O. c #326144",
"+. c #3A6547",
"@. c #3B6B46",
"#. c #34644B",
"$. c #3B634B",
"%. c #366A4E",
"&. c #3C6B4C",
"*. c #3E7146",
"=. c #3E714E",
"-. c #3D7A4F",
";. c #256254",
":. c #2C6957",
">. c #25625A",
",. c #2A635D",
"<. c #296C5E",
"1. c #326454",
"2. c #346C52",
"3. c #3B6E52",
"4. c #3C7252",
"5. c #3F7952",
"6. c #35765D",
"7. c #2F6D60",
"8. c #2F7460",
"9. c #2F7863",
"0. c #327265",
"q. c #3C7F62",
"w. c #307B68",
"e. c #434F59",
"r. c #445C56",
"t. c #44515C",
"y. c #426943",
"u. c #486D44",
"i. c #44654D",
"p. c #426E4C",
"a. c #457047",
"s. c #4B7545",
"d. c #4C7B45",
"f. c #43744C",
"g. c #45794C",
"h. c #4B7A4B",
"j. c #547C44",
"k. c #5A7A44",
"l. c #527B49",
"z. c #557B4C",
"x. c #446651",
"c. c #49615C",
"v. c #417251",
"b. c #467657",
"n. c #447B53",
"m. c #4C5D64",
"M. c #4F5D69",
"N. c #515E6A",
"B. c #466361",
"V. c #4A6868",
"C. c #54636D",
"Z. c #467E62",
"A. c #556570",
"S. c #5B6B75",
"D. c #5B6D79",
"F. c #48777F",
"G. c #5C7177",
"H. c #59757C",
"J. c #57823D",
"K. c #5C853E",
"L. c #63843E",
"P. c #3A8066",
"I. c #34856E",
"U. c #3B8472",
"Y. c #398672",
"T. c #368971",
"R. c #4F814F",
"E. c #5D8942",
"W. c #53844F",
"Q. c #4F8554",
"!. c #4B825C",
"~. c #4D8A5B",
"^. c #538354",
"/. c #548C55",
"(. c #598957",
"). c #568A5C",
"_. c #5B8D5B",
"`. c #58945B",
"'. c #58915D",
"]. c #648A47",
"[. c #638D55",
"{. c #64965E",
"}. c #64995A",
"|. c #428366",
" X c #458A67",
".X c #4C8C63",
"XX c #558C62",
"oX c #598B62",
"OX c #4D9065",
"+X c #4C946E",
"@X c #5C9964",
"#X c #579C6B",
"$X c #5C9A6B",
"%X c #659964",
"&X c #669D6A",
"*X c #5FA16D",
"=X c #63A166",
"-X c #62A26B",
";X c #6DAC6D",
":X c #73AD72",
">X c #477781",
",X c #4C7683",
"<X c #4B7983",
"1X c #4B7B8E",
"2X c #557682",
"3X c #597481",
"4X c #547885",
"5X c #537A8A",
"6X c #4A7E94",
"7X c #507D90",
"8X c #4E8093",
/* pixels */
"6X6X6X6X6X6X6X6X6X6X6X6X6X6X6X6X6X6X6X6X6X6X6X6X6X6X6X6X6X6X6X6X6X6X6X6X6X8X6X6X",
"6X6X6X6X6X6X6X6X6X6X6X6X6X6X6X6X6X6X6X6X6X6X6X6X6X6X6X6X6X6X6X6X6X6X6X6X6X6X6X6X",
"6X6X6X6X6X6X6X6X6X6X6X6X6X6X6X6X6X6X ./ )  .8X8X6X6X6X6X6X6X6X6X6X6X6X6X6X6X6X6X",
"6X6X6X6X6X6X6X6X6X6X6X6X6X6X6X6XV.y $.] I @.j V.6X6X6X6X6X6X6X6X6X6X6X6X6X6X6X6X",
"6X6X6X6X6X6X6X6X6X6X6X6X8X8X<X` N 2.(.].[.[.+.y._ <X6X1X6X6X6X6X6X6X6X6X6X6X6X6X",
"6X6X6X6X6X6X6X6X6X6X6X6X6Xx.y l., E > > > > L > j.k $.1X6X6X6X6X6X6X6X6X6X6X6X6X",
"6X6X6X6X6X6X6X6X6X6X6X8Xi.k.v @.7 < #.W.Q.+.< 7 @.b j.i.6X6X6X6X6X6X6X6X6X6X6X6X",
"6X6X6X6X6X6X6X6X6X6X6Xx.L.l.g.~ * ( _.(._._.{ - ! h.d.].$.1X6X6X6X6X6X6X6X6X6X6X",
"6X6X6X6X6X6X6X6X6X6X` W.+.d 5 H - } 4 h h 4 [ 6 Y 4 d #.j.$.6X6X6X6X6X6X6X6X6X6X",
"6X6X6X6X6X6X6X6X6X>Xk i = 6 v.1.L & K [ [ L & K #.b.7 = u k F.6X6X6X6X6X6X6X6X6X",
"6X6X6X6X6X6X6X6X,XN s O 7 f.g._.1 P 2.{.}.f.E 1 ).g.g.7 ; a M F.6X6X6X6X6X6X6X6X",
"6X6X6X6X6X6X6X6Xz j.O.< T g.'.&.1 %.~.q.U.!.&.6 $.XXn.f 1 ` s.k 8X6X6X6X6X6X6X6X",
"6X6X6X6X6X6X6X6Xj l W., 1 / 1.1 ^ /.0. X X0.n.#.- 1.~ 2 1 ^.l t H.6X6X6X6X6X6X6X",
"6X6X6X6X6X6X6X .B 8 z.G 6 > + G &.5.q.:X:XP.5.&.H $ 1 - H l.a u.| 6X6X6X6X6X6X6X",
"6X6X6X6X6X6X6X$.Z @.i P :.,.K J %.!.$X*X&X=Xn.v.L G >.:./ i &.C f 7X6X6X6X6X6X6X",
"6X6X6X6X6X6X>XM p._ 7 ^.=X|.] 8 4.!.#X*X#X=X%X[ J E Z.&X/.8 g a.y.0.6X6X6X6X6X6X",
"6X6X6X6X6X6XV.n 7 * O.5..XXX^ K =.!.#X&X&X-X%XU J L ~.oX5.+.- 5 c B.8X8X6X6X6X6X",
"6X6X6X6X6X6XV.r O < ~ g.^.3.J 6 =.!.|.;X;X6.{.U H L 2.R.g.~ > O r m.8X8X6X6X6X6X",
"6X6X6X6X6X5Xh j.~ 1 6 T ! * 6 < #.h.<.+XU.6.).^ - D * Q a 6 < Q l.z 6X6X6X6X6X6X",
"6X6X6X6X6X3Xw Z 3.L < = G [ >.H 7 b.~.q.8.`.o.H J ,.} G * 1 L 4.C e ,X6X6X6X6X6X",
"6X6X6X6X8XG.9 M @.v.= 7 &.%XZ.,.1 L 2.).{.n.I 1 >.q.@X4.G + 2.p.+.e 2X6X6X6X6X6X",
"6X6X6X6X5XS.9 O.! a.& ` f.1.;Xw.^ > I [ ;.] > L 9.:X1.v.#.& &.l l e H.6X6X6X6X6X",
"6X6X6X6X7XD.e j.g $.& y.) { `.7.[ 1 = ; < ; 1 [ ..{.( X.p.; #.l j.t 2X6X6X6X6X6X",
"6X6X6X6X6X2Xc.x d.1 & , 3.g.4.;.G ( oX%X{.oX{ 6 [ 4.g.=.4 & ; s.n r.4X6X6X6X6X6X",
"6X6X6X6X6X4XB.n V > E > a ) [ G ( XXOX+X+XOXXX^ G ] o.T < K > C m B.6X6X6X6X6X6X",
"6X6X6X6X6X5XS.a k.p ( E < L 1 E 4.).Y.T.T.Y..Xn.I 1 L 1 L [ i S 0 G.6X6X6X6X6X6X",
"6X6X6X6X6X7XD.B.w S h.-.^ . < L #.g.0.I.Y.9.-.&.L 1 + L v.s.S e r.H.6X6X6X6X6X6X",
"6X6X6X6X6X7X5XD.a A j g &.K 1 G L 3.n.Q.Q.n.3.^ J ; J +.O.f A s C.6X6X6X6X6X6X6X",
"6X6X6X6X6X6X6XD.A.s A z j.^ K > 6 E #.#.#.) E 6 > H [ h.j S s C.3X6X6X6X6X6X6X6X",
"6X6X6X6X6X6X6X5XA.m.s B K.O.K & & * 1 G J 1 ; ; & L l E.V s m.S.6X6X6X6X6X6X6X6X",
"6X6X6X6X6X6X6X6X3XD.' @ c Z y.> H ^ ^ #.o.[ L 8 # N Z N @ ' C.2X6X6X6X6X6X6X6X6X",
"6X6X6X6X6X6X6X6X6X2XS.W % d q m g K @.b @.*.8 f c q d : F N.H.6X6X6X6X6X6X6X6X6X",
"6X6X6X6X6X6X6X6X6X6XD.C.W ; < @ j B J.j d J.C k @ : < R N.3X6X6X6X6X6X6X6X6X6X6X",
"6X6X6X6X6X6X6X6X6X6X5XD.A.W % 2 H u 0 0 q 0 u 7 H   R C.H.1X6X6X6X6X6X6X6X6X6X6X",
"6X6X6X6X6X6X6X6X6X6X6X7XS.C.t.3 : Y E E E E K ; : t.S.3X6X6X6X6X6X6X6X6X6X6X6X6X",
"8X6X6X6X6X6X6X6X6X6X6X6X1X3XC.M.t.F o o   X 3 ' C.S.3X8X6X6X6X6X6X6X6X6X6X6X6X6X",
"6X6X6X6X6X6X6X6X6X6X6X6X6X6X5XD.N.N.t.e.e.t.m.A.D.6X6X6X6X6X6X6X6X6X6X6X6X6X6X6X",
"6X6X6X6X6X6X6X6X6X6X6X6X6X6X6X6X5X3XC.A.C.A.3X5X6X6X6X6X6X6X6X6X6X6X6X6X6X6X6X6X",
"6X6X6X6X6X6X6X6X6X6X6X6X6X6X6X6X6X6X6X7X6X6X6X6X6X6X6X6X6X6X6X6X6X6X6X6X6X6X6X6X",
"6X6X6X6X6X6X6X6X6X6X6X6X6X6X6X6X6X6X6X6X6X6X6X6X6X6X6X6X6X6X6X6X6X6X6X6X6X6X6X6X"
};
