/* XPM */
static char *f3d42370d19142ba9940bb8ff3585ea0tjWhB7pfYVE3bWPl[] = {
/* columns rows colors chars-per-pixel */
"40 40 49 1 ",
"  c #070B0D",
". c #0C1619",
"X c #0D1A1E",
"o c #0E1D22",
"O c #101F24",
"+ c #0F2026",
"@ c #102126",
"# c #12252B",
"$ c #13282F",
"% c #152D34",
"& c #162F38",
"* c #17323C",
"= c #18343D",
"- c #193741",
"; c #1A3A44",
": c #1B3E49",
"> c #1D424E",
", c #1E4552",
"< c #1F4956",
"1 c #204957",
"2 c #224D5B",
"3 c #23515F",
"4 c #245363",
"5 c #255768",
"6 c #275B6B",
"7 c #275B6C",
"8 c #275C6D",
"9 c #285C6D",
"0 c #285F71",
"q c #286072",
"w c #2A6376",
"e c #2A6477",
"r c #2B6679",
"t c #2C677B",
"y c #2C687B",
"u c #2C697C",
"i c #2D6B80",
"p c #2D6E83",
"a c #2F6F84",
"s c #2F7187",
"d c #2F7389",
"f c #2F748A",
"g c #2F758C",
"h c #317084",
"j c #307388",
"k c #30748A",
"l c #31778E",
"z c #31788F",
"x c #327B93",
/* pixels */
"xxxxxxxxxxxxxxxxxxxxxxpxxxxxxxxxxxxxxxxx",
"xxxxxxxxxxxxxs9lxxxxxa X2xxxxxxxxxxxxxxx",
"xxxxxxxxxxxx:o*#sxxxxp%pXlxxxxxxxxxxxxxx",
"xxxxxxxxxxxxr$x4@rxxx4>x=qxxxxxxxxxxxxxx",
"xxxxxxxxxxxxx$jxwX6suoux0-xxxxs9xxxxxxxx",
"xxxxxxxxxxxxx*uxxp$oO8xxlXjxxx-.3xxxxxxx",
"xxxxxx9wlxxxsogxxxxxxxxxx-;kx,$a.xxxxxxx",
"xxxxx>@$X@*>X2xxxxxxxxxxxl:Xo*ld@xxxxxxx",
"xxxxu 6xxdu4sxxxxxxxxxxxxxxdfxxr=xxxxxxx",
"xxxxxr#4xxxxxxxxxp3,,4hxxxxxxxx31xxxxxxx",
"xxxxxxsokxxxxxl2##;,>-+$4zxxxxx-8xxxxxxx",
"xxxxxxx-wxxxxrO;sxxxxxxi*#pxxxx%qxxxxxxx",
"xxxxxxlopxxx8oexxxxxxxxxx8otxxxw$xxj=<xx",
"xxxxz6%:xxxuouxxxxxxxxxxxxwosxxx>O@@>+xx",
"xxu,X%9xxxz#0xxxxxxxxxxxxxx4=xxxxxxxpXlx",
"x<$4sxxxxx6&xxxxxxj44lxxxxxz@rxxxxxz+9xx",
"x$0xxxxxxx%rxxxxx:@::o1xxxxx4:xxxxz%1xxx",
"x$oX:fxxxxolxxxx>=xxxl$4xxxxk#xxxx,-xxxx",
"xxxf1$xxxu$xxxxxOlxxxxs@xxxxxozxxrolxxxx",
"xxxxxXhxx0*xxxxh%xxxxxx@xxxxx+jxxw$xxxxx",
"xxxxxXhxxw%xxxxl#xxxxxx@xxxxxokxxuXfxxxx",
"xxxx4$xxxj@xxxxx$qxxxx2=xxxxloxxxx2o,9wx",
"xxx0osxxxx@kxxxxuo2lk,@sxxxxu%xxxxxu2*%x",
"xxpoyxxxxx>2xxxxxp;@#>dxxxxx-4xxxxxxk:2x",
"xl@6xxxxxxpXdxxxxxxxxxxxxxxpXlxxxlw;X=dx",
"xsOk1-,kxxx2=xxxxxxxxxxxxxx$7xxx4X&8kxxx",
"xx+O>4,@lxxz*:xxxxxxxxxxxz&>xxxkoixxxxxx",
"xxrjxxx-4xxxx=%pxxxxxxxxr@>xxxx3,xxxxxxx",
"xxxxxxx4>xxxxx6X*0fllj6%@wxxxxx0-xxxxxxx",
"xxxxxxx>6xxxxxxl6-$O@$:9xxxxxxxl@6xxxxxx",
"xxxxxxx%ixxxxxxxxxxxxxxxxxxxxxxxp#;lxxxx",
"xxxxxxxOdxr:,kxxxxxxxxxxxxs=X%:4u1@lxxxx",
"xxxxxxkXz>#6,otxxxxxxxxxxzo4sr5,**dxxxxx",
"xxxxxxjo>$lxx4*xxxs320xxx7-xxxxxxxxxxxxx",
"xxxxxxxpoexxxlXkxdo-:o2xx4:xxxxxxxxxxxxx",
"xxxxxxxxzxxxxx:6x>2xxd%-xj#xxxxxxxxxxxxx",
"xxxxxxxxxxxxxxe%xOsxxxx:$eX4xxxxxxxxxxxx",
"xxxxxxxxxxxxxxzo>Xkxxxxx3+:ixxxxxxxxxxxx",
"xxxxxxxxxxxxxxxs5,lxxxxxxxxxxxxxxxxxxxxx",
"xxxxxxxxxxxxxxxxxxxxxxxxxxxxxxxxxxxxxxxx"
};
